X: 332
T: Haddington Assembly
R: jig
M: 6/8
L: 1/8
Z: 2012 John Chambers <jc:trillian.mit.edu>
B: J. Anderson "Budget of Strathspeys, Reels and Country Dances" (Early 1800s) p.33 #2
F: http://imslp.org/wiki/Anderson%27s_Budget_of_Strathspeys,_Reels_and_Country_Dances_(Various)
K: G
B/c/ |\
dBG G2B | dB G2d | ecA ABA | fef g3 |\
dBG G2B | AFD D2c | BdB cAF | G3 G2 :|
g |\
g2a bge | f2g afd | ege dBG | F2G AFD |\
g2a bge | f2g afd | ege faf | g3- g2 ||
.G |\
g2a bge | f2g afd | ege dBG | ABG FED |\
GBG AcA | BdB c2e | dcB AGF | G3  G2 |]

%%sep 2 1 500
%%sep 1 1 500

